imgs/close.svg

<svg xmlns="http://www.w3.org/2000/svg" width="24" height="24" viewBox="0 0 24 24"><path d="M12 0c-6.627 0-12 5.373-12 12s5.373 12 12 12 12-5.373 12-12-5.373-12-12-12zm4.151 17.943l-4.143-4.102-4.117 4.159-1.833-1.833 4.104-4.157-4.162-4.119 1.833-1.833 4.155 4.102 4.106-4.16 1.849 1.849-4.1 4.141 4.157 4.104-1.849 1.849z"/></svg>

<svg width="24" height="24" viewBox="0 0 24 24" fill="none" xmlns="http://www.w3.org/2000/svg">
<path d="M12 0C5.373 0 0 5.373 0 12C0 18.627 5.373 24 12 24C18.627 24 24 18.627 24 12C24 5.373 18.627 0 12 0ZM16.151 17.943L12.008 13.841L7.891 18L6.058 16.167L10.162 12.01L6 7.891L7.833 6.058L11.988 10.16L16.094 6L17.943 7.849L13.843 11.99L18 16.094L16.151 17.943Z" fill="#CC1C00"/>
</svg>
